svg/icon-logo-nyco-secondary.svg

<svg viewBox="0 0 694 76" xmlns="http://www.w3.org/2000/svg"><g fill="currentColor" fill-rule="nonzero"><path d="M233.11 1.21c18.54 0 29.14 13.66 29.14 30.79s-10.6 30.8-29.14 30.8S204 49.14 204 32s10.57-30.79 29.11-30.79zm0 48.34c9.93 0 13.74-8.69 13.74-17.55 0-8.86-3.85-17.55-13.74-17.55s-13.74 8.7-13.74 17.55c0 8.85 3.81 17.55 13.74 17.55zM269.19 18.59h13.41v5h.17a13.54 13.54 0 0111.84-6.21c13.49 0 19.2 11.51 19.2 23.67 0 11.18-6 21.77-18.13 21.77a14.49 14.49 0 01-12.25-5.88h-.17V76h-14.07V18.59zm13.57 21c0 7.53 2.15 12.42 8.53 12.42 6.21 0 8.44-6.54 8.44-12.42 0-5.46-2.07-11.51-8.36-11.51-3.72.03-8.6 2.6-8.6 11.54l-.01-.03zM320.5 18.59h13.41v5h.17a13.54 13.54 0 0111.84-6.21c13.49 0 19.2 11.51 19.2 23.67 0 11.18-6 21.77-18.13 21.77a14.48 14.48 0 01-12.25-5.88h-.17V76H320.5V18.59zm13.57 21c0 7.53 2.15 12.42 8.53 12.42 6.21 0 8.44-6.54 8.44-12.42 0-5.46-2.07-11.51-8.36-11.51-3.68.03-8.6 2.6-8.6 11.54l-.01-.03zM392.34 17.35c13.33 0 22.68 9.85 22.68 22.76 0 12.91-9.35 22.69-22.68 22.69s-22.6-9.77-22.6-22.68 9.26-22.77 22.6-22.77zm0 34.68C399 52 401 45.66 401 40.12s-2-12-8.61-12c-6.61 0-8.53 6.54-8.53 12S385.8 52 392.34 52v.03zM420 18.59h13.66v7.53h.17c2.07-5.55 6.87-8.36 12.91-8.36a15 15 0 013.31.33v12.84a17.35 17.35 0 00-5.38-.83c-7 0-10.6 4.8-10.6 10.18v21.27H420V18.59zM484 27.7h-8.69v19.53c0 3.39 2 4.14 5 4.14 1.24 0 2.4-.17 3.64-.17v10.35c-2.57.08-5.13.41-7.7.41-12 0-15.07-3.56-15.07-15.15V27.7h-7.12v-9.11h7.12v-13h14.07v13H484v9.11zM533.79 61.55h-13.66v-5.87H520a15.83 15.83 0 01-13.08 7.12c-12.37 0-15.92-7.12-15.92-18.38V18.59h14.07v24.92c0 5.71 2.4 7.7 7 7.7 3 0 7.7-2 7.7-9.6v-23h14.07l-.05 42.94zM543.21 18.59h13.66v5.88h.13c2.65-4.39 8.36-7.12 13.49-7.12C584.85 17.35 586 27.78 586 34v27.55h-14.06V36.47c0-4.14-1.41-7.53-7-7.53-5.3 0-7.61 4.55-7.61 9.19v23.42h-14.12V18.59zM609.09 13.21H595V2.45h14.07l.02 10.76zM595 18.59h14.07v43H595v-43zM644.93 27.7h-8.69v19.53c0 3.39 2 4.14 5 4.14 1.24 0 2.4-.17 3.64-.17v10.35c-2.57.08-5.13.41-7.7.41-12 0-15.07-3.56-15.07-15.15V27.7H615v-9.11h7.12v-13h14.07v13h8.69l.05 9.11zM676.71 65.36c-3.31 9.44-8.53 10.6-18 10.6h-6.62V64.53H657c3.23 0 5.63-1.82 5.63-4.8 0-2.32-2.73-8.94-3.56-11.26L648 18.59h14.9l8.11 28h.17l8.11-28h14.4l-16.98 46.77zM187.9 27.18l4-3.77V11.96L179.92.52h-39.91l-11.97 11.44V4.33L124.05.52h-15.97l-3.99 3.81v7.63l-7.98 7.63-7.98-7.63V4.33l-4-3.81H68.17l-3.99 3.81L60.19.52H44.22l-3.99 3.81v15.26L20.28.52H4.31L.32 4.33v53.41l3.99 3.82h15.97l3.99-3.82V42.48l19.95 19.08h15.97l3.99-3.82V27.22L84.13 46.3v11.44l4 3.82h15.96l3.99-3.82V46.3l19.96-19.08v22.89l11.97 11.45h39.91l11.98-11.45V38.66l-4-3.81h-19.95v3.81h-15.96V23.41h15.96v3.77z"/></g></svg>

<svg viewBox="0 0 694 76" xmlns="http://www.w3.org/2000/svg"><g fill="currentColor" fill-rule="nonzero"><path d="M233.11 1.21C251.65 1.21 262.25 14.87 262.25 32 262.25 49.13 251.65 62.8 233.11 62.8 214.57 62.8 204 49.14 204 32 204 14.86 214.57 1.21 233.11 1.21zM233.11 49.55C243.04 49.55 246.85 40.86 246.85 32 246.85 23.14 243 14.45 233.11 14.45 223.22 14.45 219.37 23.15 219.37 32 219.37 40.85 223.18 49.55 233.11 49.55zM269.19 18.59L282.6 18.59 282.6 23.59 282.77 23.59C285.348203 19.5799532 289.845296 17.2212582 294.61 17.38 308.1 17.38 313.81 28.89 313.81 41.05 313.81 52.23 307.81 62.82 295.68 62.82 290.873811 63.0147635 286.284251 60.8117748 283.43 56.94L283.26 56.94 283.26 76 269.19 76 269.19 18.59zM282.76 39.59C282.76 47.12 284.91 52.01 291.29 52.01 297.5 52.01 299.73 45.47 299.73 39.59 299.73 34.13 297.66 28.08 291.37 28.08 287.65 28.11 282.77 30.68 282.77 39.62L282.76 39.59zM320.5 18.59L333.91 18.59 333.91 23.59 334.08 23.59C336.658203 19.5799532 341.155296 17.2212582 345.92 17.38 359.41 17.38 365.12 28.89 365.12 41.05 365.12 52.23 359.12 62.82 346.99 62.82 342.183444 63.0165436 337.593092 60.8131747 334.74 56.94L334.57 56.94 334.57 76 320.5 76 320.5 18.59zM334.07 39.59C334.07 47.12 336.22 52.01 342.6 52.01 348.81 52.01 351.04 45.47 351.04 39.59 351.04 34.13 348.97 28.08 342.68 28.08 339 28.11 334.08 30.68 334.08 39.62L334.07 39.59zM392.34 17.35C405.67 17.35 415.02 27.2 415.02 40.11 415.02 53.02 405.67 62.8 392.34 62.8 379.01 62.8 369.74 53.03 369.74 40.12 369.74 27.21 379 17.35 392.34 17.35zM392.34 52.03C399 52 401 45.66 401 40.12 401 34.58 399 28.12 392.39 28.12 385.78 28.12 383.86 34.66 383.86 40.12 383.86 45.58 385.8 52 392.34 52L392.34 52.03zM420 18.59L433.66 18.59 433.66 26.12 433.83 26.12C435.9 20.57 440.7 17.76 446.74 17.76 447.852156 17.7469435 448.962313 17.8576239 450.05 18.09L450.05 30.93C448.311511 30.3719707 446.495835 30.091857 444.67 30.1 437.67 30.1 434.07 34.9 434.07 40.28L434.07 61.55 420 61.55 420 18.59zM484 27.7L475.31 27.7 475.31 47.23C475.31 50.62 477.31 51.37 480.31 51.37 481.55 51.37 482.71 51.2 483.95 51.2L483.95 61.55C481.38 61.63 478.82 61.96 476.25 61.96 464.25 61.96 461.18 58.4 461.18 46.81L461.18 27.7 454.06 27.7 454.06 18.59 461.18 18.59 461.18 5.59 475.25 5.59 475.25 18.59 484 18.59 484 27.7zM533.79 61.55L520.13 61.55 520.13 55.68 520 55.68C517.098308 60.0840664 512.193849 62.7537724 506.92 62.8 494.55 62.8 491 55.68 491 44.42L491 18.59 505.07 18.59 505.07 43.51C505.07 49.22 507.47 51.21 512.07 51.21 515.07 51.21 519.77 49.21 519.77 41.61L519.77 18.61 533.84 18.61 533.79 61.55zM543.21 18.59L556.87 18.59 556.87 24.47 557 24.47C559.65 20.08 565.36 17.35 570.49 17.35 584.85 17.35 586 27.78 586 34L586 61.55 571.94 61.55 571.94 36.47C571.94 32.33 570.53 28.94 564.94 28.94 559.64 28.94 557.33 33.49 557.33 38.13L557.33 61.55 543.21 61.55 543.21 18.59zM609.09 13.21L595 13.21 595 2.45 609.07 2.45 609.09 13.21zM595 18.59L609.07 18.59 609.07 61.59 595 61.59 595 18.59zM644.93 27.7L636.24 27.7 636.24 47.23C636.24 50.62 638.24 51.37 641.24 51.37 642.48 51.37 643.64 51.2 644.88 51.2L644.88 61.55C642.31 61.63 639.75 61.96 637.18 61.96 625.18 61.96 622.11 58.4 622.11 46.81L622.11 27.7 615 27.7 615 18.59 622.12 18.59 622.12 5.59 636.19 5.59 636.19 18.59 644.88 18.59 644.93 27.7zM676.71 65.36C673.4 74.8 668.18 75.96 658.71 75.96L652.09 75.96 652.09 64.53 657 64.53C660.23 64.53 662.63 62.71 662.63 59.73 662.63 57.41 659.9 50.79 659.07 48.47L648 18.59 662.9 18.59 671.01 46.59 671.18 46.59 679.29 18.59 693.69 18.59 676.71 65.36zM187.9 27.18L191.9 23.41 191.9 11.96 179.92.52 140.01.52 128.04 11.96 128.04 4.33 124.05.52 108.08.52 104.09 4.33 104.09 11.96 96.11 19.59 88.13 11.96 88.13 4.33 84.13.52 68.17.52 64.18 4.33 60.19.52 44.22.52 40.23 4.33 40.23 19.59 20.28.52 4.31.52.32 4.33.32 57.74 4.31 61.56 20.28 61.56 24.27 57.74 24.27 42.48 44.22 61.56 60.19 61.56 64.18 57.74 64.18 27.22 84.13 46.3 84.13 57.74 88.13 61.56 104.09 61.56 108.08 57.74 108.08 46.3 128.04 27.22 128.04 50.11 140.01 61.56 179.92 61.56 191.9 50.11 191.9 38.66 187.9 34.85 167.95 34.85 167.95 38.66 151.99 38.66 151.99 23.41 167.95 23.41 167.95 27.18z"/></g></svg>
